X: 100222
M: C|
L: 1/8
K: G
|:\
vB4 (.c2.c2) | (.B2>>.G2) D4 | e4 d2c2 | B4 e4 |\
c4 d2d2 | B4 B2^c2 | d4 ^c4 | B4 z4 :|
|: vc4 (B2A2) | (.B2>>.B2) B4 | B2A2 G2F2 | E4 F4 |\


